X:1
T:Drums and Guns
C:Roy Watrous, Guilford, Conn
M:4/4
K:Bm
F2 |"Bm" BFdF BFdF |Bcde f2de | "Bm" fbag fede | "F#7"f2fg fedc | 
"Bm" BFdF BFdF |Bcde f2de | "Bm" fbag "F#7"fede |1f2f2 "Bm"B2  :|2f2f2"Bm" B2 z2||
|:"D"a2fg a2gf | "A7"e2f2 g2ef|gAfA eAfA| gfed cedc|
"Bm" BFdF BFdF |Bcde f2 de | "Bm" fbag "F#7"fede | f2f2 "Bm"B2 z2 :|
